src/assets/telescope.svg

<svg width="477" height="512" viewBox="0 0 477 512" fill="none" xmlns="http://www.w3.org/2000/svg">
<path d="M465.328 467.932C426.614 457.331 331.959 445.652 292.098 440.941C196.377 429.627 96.7086 420.156 1.13992 415.731C0.8506 415.729 0.56946 415.838 0.356564 416.037C0.143667 416.234 0.0180995 416.507 0.00172282 416.796C-0.0146538 417.088 0.0836034 417.372 0.271935 417.593C0.460267 417.814 0.727738 417.953 1.01706 417.98C120.04 425.896 394.728 454.94 464.261 472.531C465.697 472.891 466.745 468.32 465.328 467.932Z" fill="#151515"/>
<path d="M132.451 292.44C133.054 291.075 130.327 292.615 129.317 289.779C126.913 283.015 126.883 280.894 130.011 278.552C133.734 276.151 137.743 274.224 141.947 272.821C142.997 272.499 140.726 271.456 138.144 268.312C137.489 267.517 137.694 267.823 131.455 270.937C123.842 274.739 123.367 274.319 122.447 276.765C121.252 279.59 119.049 281.869 116.265 283.157C110.618 286.037 105.126 288.777 100.62 283.99C100.058 283.392 100.096 283.46 96.9462 285.122C82.5265 292.729 82.9223 291.244 82.5811 292.838C82.1854 294.528 81.3966 296.1 80.2802 297.427C79.1639 298.756 77.7527 299.801 76.156 300.481C71.5296 302.962 69.1959 304.706 64.5177 303.107C50.8704 298.439 42.7667 279.158 48.9899 273.023C54.3205 267.771 57.2137 264.146 64.5805 265.765C65.7214 266.016 64.807 266.024 79.1884 255.958C80.6814 254.913 80.7033 254.651 80.4712 253.799C80.2365 252.918 80.2147 251.992 80.4085 251.1C80.6023 250.208 81.0063 249.375 81.5876 248.671C89.6149 238.067 96.8725 238.449 99.4654 238.61C99.7138 238.639 99.9677 238.61 100.205 238.525C100.443 238.44 100.655 238.302 100.83 238.122C112.567 224.603 195.329 167.129 215.434 153.58C217.432 152.231 216.182 151.776 216.711 149.914C218.622 143.181 228.841 134.045 234.999 131.673C259.356 122.292 289.031 153.648 286.47 179.458C285.062 193.651 277.845 199.011 264.845 204.165C262.543 205.058 260.054 205.362 257.604 205.049C255.044 204.336 252.587 203.298 250.292 201.959C247.882 200.362 249.156 204.429 173.049 248.436C171.831 249.14 172.333 249.08 172.377 250.461C172.606 255.849 171.416 261.199 168.924 265.981C168.348 267.072 169.197 266.527 172.773 266.42C182.209 266.12 183.036 268.789 183.068 278.08C183.068 280.021 181.949 280.894 180.009 281.981C177.165 283.577 177.055 283.654 177.219 284.213C177.525 285.256 254.812 502.782 254.932 506.185C255.022 508.773 252.281 510.743 249.746 511.199C249.159 511.306 246.809 505.497 242.595 494.902C232.646 469.892 207.153 408.823 202.603 397.229C164.265 299.515 169.803 312.769 164.325 299.299C163.536 297.361 163.558 298.996 163.102 306.638C162.887 310.239 150.427 487.666 149.706 496.125C149.057 503.704 148.743 503.688 147.706 503.767C146.548 504.059 145.336 504.064 144.176 503.786C143.014 503.508 141.938 502.951 141.038 502.168C139.618 500.448 140.082 499.839 140.716 481.97C141.076 471.824 147.067 304.722 147.018 304.717C147.018 297.62 83.7602 455.169 62.5088 502.47C61.6463 504.381 60.4836 503.475 57.4976 502.009C56.414 501.256 55.6333 500.142 55.2976 498.865C54.9619 497.588 55.0902 496.234 55.6606 495.044C64.4249 471.478 132.451 292.44 132.451 292.44ZM50.1417 274.699C47.475 277.567 48.2912 285.182 53.417 292.339C57.0199 297.367 63.6579 303.349 69.3051 301.12C72.5805 299.828 73.9015 296.207 71.7452 289.383C68.6473 279.554 55.5869 268.83 50.1444 274.696L50.1417 274.699ZM60.3744 267.602C58.4883 267.867 56.7442 268.762 55.4314 270.143C55.1939 270.356 54.4187 271.148 55.8653 271.153C64.0264 272.106 74.4119 284.344 74.9714 293.998C75.187 297.629 74.4255 298.161 75.531 297.77C83.2034 295.082 81.0499 284.033 74.9114 276.044C72.8261 273.383 70.3123 271.087 67.4709 269.253C65.3447 267.957 62.8582 267.378 60.3771 267.602H60.3744ZM68.0168 266.273C66.4747 267.274 69.4661 266.33 75.2416 272.823C86.2413 285.18 80.4958 291.01 84.5218 289.246C86.184 288.518 89.3583 286.711 96.3075 283.102C107.498 277.291 107.386 277.352 107.225 276.099C106.295 271.074 104.228 266.327 101.185 262.222C98.5784 258.442 95.2785 255.188 91.4627 252.636C90.4092 251.902 89.7759 251.378 88.4194 252.32C86.386 253.742 81.4675 257.541 68.0359 266.273H68.0168ZM91.0861 242.551C86.8527 245.363 83.1161 249.375 84.7456 248.616C89.0445 246.613 94.184 251.125 98.0516 254.73C103.554 259.85 107.509 266.412 109.469 273.667C109.949 275.135 110.132 276.686 110.009 278.225C109.886 279.764 109.461 281.266 108.754 282.638C108.453 283.105 107.766 284.276 109.3 283.809C112.526 282.854 115.536 281.287 118.17 279.194C120.826 276.986 121.402 272.269 121.361 268.937C121.167 252.342 101.709 235.504 91.0997 242.551H91.0861ZM260.358 201.776C260.666 202.227 261.209 202.145 261.723 201.951C270.705 198.561 281.609 194.366 283.285 181.256C285.742 161.976 271.917 140.828 252.443 134.583C247.197 132.557 241.407 132.412 236.066 134.171C230.64 136.878 225.858 140.718 222.045 145.432C224.329 144.56 226.799 144.278 229.223 144.614C250.262 147.157 273.781 188.579 261.324 200.652C260.887 201.075 260.241 201.602 260.358 201.776ZM260.669 190.99C260.974 190.86 261.221 190.625 261.365 190.327C261.509 190.03 261.54 189.69 261.452 189.371C257.066 163.676 235.607 147.594 230.02 147.796C229.008 147.728 229.087 147.643 220.56 153.613C186.008 177.793 136.567 210.863 102.749 238.959C101.458 240.032 110.348 240.155 118.793 252.661C126.555 264.157 122.668 272.927 124.424 272.002C191.191 236.863 254.039 194.401 260.669 190.99ZM178.922 269.324C177.285 267.556 168.998 269.051 168.004 269.16C167.554 269.182 167.115 269.308 166.722 269.523C166.326 269.742 165.987 270.048 165.728 270.416C163.386 273.241 160.163 275.198 156.576 275.97C152.99 276.743 149.248 276.287 145.951 274.677C145.402 274.297 144.731 274.134 144.07 274.221C140.189 275.414 136.458 277.043 132.945 279.079C122.011 285.941 151.317 283.58 171.449 275.28C173.551 274.404 180.475 270.984 178.922 269.316V269.324ZM137.798 289.724C161.129 289.798 180.961 280.741 180.833 278.195C180.65 274.576 180.729 272.089 179.632 273.11C171.572 280.6 140.451 286.877 130.928 284.822C130.426 284.713 130.327 284.871 130.382 285.234C130.592 286.427 130.887 287.603 131.261 288.755C131.951 290.049 133.357 289.702 137.798 289.716V289.724Z" fill="#151515"/>
<path d="M68.1779 296.051C66.4747 300.145 59.2854 296.034 55.3686 289.552C53.5863 286.604 51.834 283.411 52.4045 280.468C53.0868 276.92 57.1592 277.319 59.8204 279.319C64.7306 283.007 69.8511 290.832 68.1779 296.051Z" fill="#151515"/>
<path d="M472.907 354.29C469.992 354.29 470.12 354.454 470.177 353.471C470.177 353.471 470.633 348.908 471.045 343.31C471.174 341.568 467.431 339.873 467.066 350.169C466.902 354.809 466.651 354.536 465.843 354.555C455.52 354.773 455.386 354.26 455.018 355.145C454.682 355.963 459.15 357.216 460.01 357.377C466.263 358.54 466.288 357.377 466.288 359.113C466.211 370.694 466.244 368.366 465.952 370.746C465.895 371.202 466.394 371.191 466.572 371.055C468.398 369.654 469.301 363.041 469.372 361.452C469.552 357.839 469.822 358.057 470.538 358.002C475.661 357.609 476.905 357.716 476.987 356.548C477.159 354.146 475.328 354.29 472.907 354.29Z" fill="#151515"/>
<path d="M194.657 42.7456C194.657 48.4774 194.906 48.3682 193.918 48.371C189.99 48.371 189.005 48.4992 187.539 48.5839C186.073 48.6685 186.207 49.7057 186.914 50.1396C188.868 51.3188 191.112 51.9329 193.394 51.9138C195.113 52.0803 194.308 51.4989 195.176 59.4934C195.67 64.0653 196.093 65.8858 196.977 65.2498C198.601 64.0816 198.309 56.3246 198.569 52.7162C198.629 51.8483 198.443 51.7664 202.805 51.7746C203.651 51.7746 204.795 51.8756 205.043 50.8438C205.422 49.2662 205.155 48.4938 202.041 48.3873C198.446 48.2563 198.318 48.5102 198.282 47.7104C198.211 44.2588 197.952 40.8134 197.504 37.3904C197.504 37.0154 197.354 36.6556 197.089 36.3906C196.825 36.1256 196.464 35.9766 196.09 35.9766C195.716 35.9766 195.356 36.1256 195.091 36.3906C194.827 36.6556 194.677 37.0154 194.677 37.3904C194.578 39.1738 194.573 40.9613 194.657 42.7456Z" fill="#151515"/>
<path d="M51.3209 137.353C50.6003 137.577 52.036 138.888 53.2315 139.412C54.5689 139.827 55.95 140.092 57.3475 140.201C57.6668 140.25 58.2755 140.201 58.3765 140.695C58.7504 142.556 58.9087 145.231 59.6402 149.702C60.1861 153.043 60.762 153.28 61.2779 153.359C61.6791 153.419 62.3697 152.898 62.3205 149.855C62.255 146.399 62.0667 141.721 61.9711 141.169C61.8483 140.476 63.194 140.64 66.7095 141.017C67.0616 141.057 67.4137 140.97 67.7084 140.773C68.0005 140.576 68.2161 140.281 68.3117 139.941C68.4072 139.601 68.3771 139.237 68.2298 138.916C68.0824 138.595 67.8258 138.337 67.5037 138.189C65.9234 137.4 64.2093 136.91 62.4488 136.745C62.1349 136.671 61.7719 136.887 61.5945 136.384C60.964 134.616 61.1305 130.181 60.5519 127.923C59.935 125.513 58.1854 126.223 58.139 128.065C57.8361 140.986 59.7166 134.744 51.3209 137.353Z" fill="#151515"/>
<circle cx="89.0171" cy="89.0171" r="89.0171" transform="matrix(-1 0 0 1 464.89 -0.000244141)" fill="#151515"/>
<path d="M349.831 108.627C360.748 114.085 371.802 113.812 383.975 112.202C399.888 110.1 413.616 96.4809 417.192 92.7144C391.536 99.7562 362.14 101.066 336.239 99.183C340.192 102.472 345.392 106.03 349.831 108.627Z" fill="white"/>
<path d="M417.983 91.4589C458.733 77.812 421.804 77.9758 403.381 75.7377C399.942 88.402 358.892 89.7394 353.734 79.6407C347.511 80.4322 319.398 84.3079 316.696 90.5582C315.55 93.2875 317.952 94.9798 321.309 96.0169C353.474 100.562 386.208 98.9975 417.792 91.4043C417.864 91.4589 417.929 91.5232 417.983 91.5954V91.4589Z" fill="white"/>
<path fill-rule="evenodd" clip-rule="evenodd" d="M354.907 79.3677L354.917 79.3819L354.907 79.5042V79.3677Z" fill="black"/>
<path d="M354.917 79.3819C361.767 89.6542 401.144 86.1042 402.726 75.0826C394.12 59.3132 356.46 60.3124 354.917 79.3819Z" fill="#3B82F6"/>
<path d="M387.256 247.769C387.256 253.501 387.505 253.392 386.517 253.394C382.589 253.394 381.604 253.523 380.138 253.607C378.672 253.692 378.806 254.729 379.513 255.163C381.467 256.342 383.711 256.956 385.993 256.937C387.712 257.104 386.907 256.522 387.775 264.517C388.269 269.089 388.692 270.909 389.576 270.273C391.2 269.105 390.908 261.348 391.168 257.74C391.228 256.872 391.042 256.79 395.404 256.798C396.25 256.798 397.393 256.899 397.642 255.867C398.021 254.29 397.754 253.517 394.639 253.411C391.045 253.28 390.916 253.534 390.881 252.734C390.81 249.282 390.551 245.837 390.103 242.414C390.103 242.039 389.953 241.679 389.688 241.414C389.423 241.149 389.063 241 388.689 241C388.315 241 387.955 241.149 387.69 241.414C387.425 241.679 387.275 242.039 387.275 242.414C387.177 244.197 387.172 245.985 387.256 247.769Z" fill="#151515"/>
</svg>

<svg width="477" height="512" fill="none" xmlns="http://www.w3.org/2000/svg"><path d="M465.328 467.932c-38.714-10.601-133.369-22.28-173.23-26.991-95.721-11.314-195.39-20.785-290.958-25.21-.29-.002-.57.107-.783.306a1.13 1.13 0 0 0 .66 1.943c119.023 7.916 393.711 36.96 463.244 54.551 1.436.36 2.484-4.211 1.067-4.599z" fill="#151515"/><path d="M132.451 292.44c.603-1.365-2.124.175-3.134-2.661-2.404-6.764-2.434-8.885.694-11.227a52.956 52.956 0 0 1 11.936-5.731c1.05-.322-1.221-1.365-3.803-4.509-.655-.795-.45-.489-6.689 2.625-7.613 3.802-8.088 3.382-9.008 5.828a12.337 12.337 0 0 1-6.182 6.392c-5.647 2.88-11.139 5.62-15.645.833-.562-.598-.524-.53-3.674 1.132-14.42 7.607-14.024 6.122-14.365 7.716a11.037 11.037 0 0 1-2.3 4.589 11.023 11.023 0 0 1-4.125 3.054c-4.626 2.481-6.96 4.225-11.638 2.626-13.648-4.668-21.751-23.949-15.528-30.084 5.33-5.252 8.224-8.877 15.59-7.258 1.141.251.227.259 14.608-9.807 1.493-1.045 1.515-1.307 1.283-2.159a5.748 5.748 0 0 1-.063-2.699 5.723 5.723 0 0 1 1.18-2.429c8.027-10.604 15.285-10.222 17.877-10.061a1.635 1.635 0 0 0 1.365-.488c11.737-13.519 94.499-70.993 114.604-84.542 1.998-1.349.748-1.804 1.277-3.666 1.911-6.733 12.13-15.869 18.288-18.241 24.357-9.381 54.032 21.975 51.471 47.785-1.408 14.193-8.625 19.553-21.625 24.707a14.826 14.826 0 0 1-7.241.884 31.026 31.026 0 0 1-7.312-3.09c-2.41-1.597-1.136 2.47-77.243 46.477-1.218.704-.716.644-.672 2.025a30.75 30.75 0 0 1-3.453 15.52c-.576 1.091.273.546 3.849.439 9.436-.3 10.263 2.369 10.295 11.66 0 1.941-1.119 2.814-3.059 3.901-2.844 1.596-2.954 1.673-2.79 2.232.306 1.043 77.593 218.569 77.713 221.972.09 2.588-2.651 4.558-5.186 5.014-.587.107-2.937-5.702-7.151-16.297-9.949-25.01-35.442-86.079-39.992-97.673-38.338-97.714-32.8-84.46-38.278-97.93-.789-1.938-.767-.303-1.223 7.339-.215 3.601-12.675 181.028-13.396 189.487-.649 7.579-.963 7.563-2 7.642a7.394 7.394 0 0 1-6.668-1.599c-1.42-1.72-.956-2.329-.322-20.198.36-10.146 6.351-177.248 6.302-177.253 0-7.097-63.258 150.452-84.51 197.753-.862 1.911-2.024 1.005-5.01-.461a5.546 5.546 0 0 1-2.2-3.144 5.565 5.565 0 0 1 .363-3.821c8.764-23.566 76.79-202.604 76.79-202.604zm-82.31-17.741c-2.666 2.868-1.85 10.483 3.276 17.64 3.603 5.028 10.24 11.01 15.888 8.781 3.275-1.292 4.596-4.913 2.44-11.737-3.098-9.829-16.158-20.553-21.6-14.687l-.003.003zm10.233-7.097a8.442 8.442 0 0 0-4.943 2.541c-.237.213-1.012 1.005.434 1.01 8.161.953 18.547 13.191 19.106 22.845.216 3.631-.546 4.163.56 3.772 7.672-2.688 5.519-13.737-.62-21.726a30.397 30.397 0 0 0-7.44-6.791 11.621 11.621 0 0 0-7.094-1.651h-.003zm7.643-1.329c-1.542 1.001 1.45.057 7.225 6.55 11 12.357 5.254 18.187 9.28 16.423 1.662-.728 4.836-2.535 11.785-6.144 11.191-5.811 11.079-5.75 10.918-7.003a33.562 33.562 0 0 0-6.04-13.877 36.378 36.378 0 0 0-9.722-9.586c-1.054-.734-1.687-1.258-3.044-.316-2.033 1.422-6.951 5.221-20.383 13.953h-.02zm23.07-23.722c-4.234 2.812-7.97 6.824-6.341 6.065 4.299-2.003 9.438 2.509 13.306 6.114a40.183 40.183 0 0 1 11.417 18.937 11.68 11.68 0 0 1-.715 8.971c-.301.467-.988 1.638.546 1.171a26.22 26.22 0 0 0 8.87-4.615c2.656-2.208 3.232-6.925 3.191-10.257-.194-16.595-19.652-33.433-30.261-26.386h-.014zm169.271-40.775c.308.451.851.369 1.365.175 8.982-3.39 19.886-7.585 21.562-20.695 2.457-19.28-11.368-40.428-30.842-46.673a24.338 24.338 0 0 0-16.377-.412 42.35 42.35 0 0 0-14.021 11.261 14.534 14.534 0 0 1 7.178-.818c21.039 2.543 44.558 43.965 32.101 56.038-.437.423-1.083.95-.966 1.124zm.311-10.786a1.367 1.367 0 0 0 .783-1.619c-4.386-25.695-25.845-41.777-31.432-41.575-1.012-.068-.933-.153-9.46 5.817-34.552 24.18-83.993 57.25-117.811 85.346-1.291 1.073 7.599 1.196 16.044 13.702 7.762 11.496 3.875 20.266 5.631 19.341 66.767-35.139 129.615-77.601 136.245-81.012zm-81.747 78.334c-1.637-1.768-9.924-.273-10.918-.164-.45.022-.889.148-1.282.363a2.979 2.979 0 0 0-.994.893 16.361 16.361 0 0 1-19.777 4.261 2.69 2.69 0 0 0-1.881-.456 53.576 53.576 0 0 0-11.125 4.858c-10.934 6.862 18.372 4.501 38.504-3.799 2.102-.876 9.026-4.296 7.473-5.964v.008zm-41.124 20.4c23.331.074 43.163-8.983 43.035-11.529-.183-3.619-.104-6.106-1.201-5.085-8.06 7.49-39.181 13.767-48.704 11.712-.502-.109-.601.049-.546.412a26 26 0 0 0 .879 3.521c.69 1.294 2.096.947 6.537.961v.008z" fill="#151515"/><path d="M68.178 296.051c-1.703 4.094-8.893-.017-12.81-6.499-1.782-2.948-3.534-6.141-2.964-9.084.683-3.548 4.755-3.149 7.416-1.149 4.91 3.688 10.031 11.513 8.358 16.732zM472.907 354.29c-2.915 0-2.787.164-2.73-.819 0 0 .456-4.563.868-10.161.129-1.742-3.614-3.437-3.979 6.859-.164 4.64-.415 4.367-1.223 4.386-10.323.218-10.457-.295-10.825.59-.336.818 4.132 2.071 4.992 2.232 6.253 1.163 6.278 0 6.278 1.736-.077 11.581-.044 9.253-.336 11.633-.057.456.442.445.62.309 1.826-1.401 2.729-8.014 2.8-9.603.18-3.613.45-3.395 1.166-3.45 5.123-.393 6.367-.286 6.449-1.454.172-2.402-1.659-2.258-4.08-2.258zM194.657 42.746c0 5.731.249 5.622-.739 5.625-3.928 0-4.913.128-6.379.213-1.466.084-1.332 1.122-.625 1.556a12.344 12.344 0 0 0 6.48 1.774c1.719.166.914-.415 1.782 7.58.494 4.571.917 6.392 1.801 5.756 1.624-1.168 1.332-8.925 1.592-12.534.06-.868-.126-.95 4.236-.941.846 0 1.99.1 2.238-.931.379-1.578.112-2.35-3.002-2.457-3.595-.13-3.723.123-3.759-.677a94.501 94.501 0 0 0-.778-10.32 1.415 1.415 0 0 0-2.413-1 1.418 1.418 0 0 0-.414 1 52.272 52.272 0 0 0-.02 5.356zM51.32 137.353c-.72.224.716 1.535 1.911 2.059 1.338.415 2.719.68 4.116.789.32.049.928 0 1.03.494.373 1.861.532 4.536 1.263 9.007.546 3.341 1.122 3.578 1.638 3.657.401.06 1.092-.461 1.043-3.504-.066-3.456-.254-8.134-.35-8.686-.123-.693 1.223-.529 4.739-.152a1.491 1.491 0 0 0 1.602-1.076 1.493 1.493 0 0 0-.808-1.752 14.306 14.306 0 0 0-5.055-1.444c-.314-.074-.677.142-.855-.361-.63-1.768-.464-6.203-1.042-8.461-.617-2.41-2.367-1.7-2.413.142-.303 12.921 1.578 6.679-6.818 9.288z" fill="#151515"/><circle cx="89.017" cy="89.017" r="89.017" transform="matrix(-1 0 0 1 464.89 0)" fill="#151515"/><path d="M349.831 108.627c10.917 5.458 21.971 5.185 34.144 3.575 15.913-2.102 29.641-15.721 33.217-19.488-25.656 7.042-55.052 8.352-80.953 6.469 3.953 3.289 9.153 6.847 13.592 9.444z" fill="#fff"/><path d="M417.983 91.459c40.75-13.647 3.821-13.483-14.602-15.721-3.439 12.664-44.489 14.001-49.647 3.903-6.223.791-34.336 4.667-37.038 10.917-1.146 2.73 1.256 4.422 4.613 5.459a258.206 258.206 0 0 0 96.483-4.613.971.971 0 0 1 .191.191v-.136z" fill="#fff"/><path fill-rule="evenodd" clip-rule="evenodd" d="m354.907 79.368.01.014-.01.122v-.136z" fill="#000"/><path d="M354.917 79.382c6.85 10.272 46.227 6.722 47.809-4.3-8.606-15.769-46.266-14.77-47.809 4.3z" fill="#3B82F6"/><path d="M387.256 247.769c0 5.732.249 5.623-.739 5.625-3.928 0-4.913.129-6.379.213-1.466.085-1.332 1.122-.625 1.556a12.346 12.346 0 0 0 6.48 1.774c1.719.167.914-.415 1.782 7.58.494 4.572.917 6.392 1.801 5.756 1.624-1.168 1.332-8.925 1.592-12.533.06-.868-.126-.95 4.236-.942.846 0 1.989.101 2.238-.931.379-1.577.112-2.35-3.003-2.456-3.594-.131-3.723.123-3.758-.677a94.494 94.494 0 0 0-.778-10.32 1.416 1.416 0 0 0-2.413-1 1.416 1.416 0 0 0-.415 1 52.554 52.554 0 0 0-.019 5.355z" fill="#151515"/></svg>
